images_sukapura_svg/cmd/sc_thesaurus.svg

<svg viewBox="0 0 16 16" xmlns="http://www.w3.org/2000/svg" xmlns:xlink="http://www.w3.org/1999/xlink"><linearGradient id="a" gradientUnits="userSpaceOnUse" x1="-19.983051" x2="-19.983051" y1="9.016949" y2="-5.983051"><stop offset="0" stop-color="#0040dd"/><stop offset="1" stop-color="#0a84ff"/></linearGradient><path d="m0 1h16v15h-16z" fill="url(#a)"/><path d="m1 0v15h7c-1.6828986-.870742-2.6974265-1.079693-3.9042969-1.095703l-2.0957031.095703v-13c5 0 5 1 6 2 1-1 1-2 6-2v13l-2.773438-.115234c-.982758.056789-1.940045.31275-3.226562 1.115234h7v-15c-3 0-3 0-7 2-3-2-3-2-7-2z" fill="#69696e"/><path d="m8 15c-1.6828986-.870742-2.6974265-1.079693-3.9042969-1.095703l-2.0957031.095703v-13c5 0 5 1 6 2 1-1 1-2 6-2v13l-2.773438-.115234c-.982758.056789-1.940045.31275-3.226562 1.115234z" fill="#fff"/><path d="m9 3h4v1h-4z" fill="#ff4035"/><path d="m9 5h4v1h-4z" fill="#af52de"/><g fill="#98989d"><path d="m9 7h4v1h-4z"/><path d="m9 9h4v1h-4z"/><path d="m9 11h4v1h-4z"/><path d="m3 3h4v1h-4z"/><path d="m3 5h4v1h-4z"/><path d="m3 7h4v1h-4z"/><path d="m3 9h4v1h-4z"/><path d="m3 11h4v1h-4z"/></g></svg>

<?xml version="1.0" encoding="UTF-8" standalone="no"?>
<svg
   xmlns:dc="http://purl.org/dc/elements/1.1/"
   xmlns:cc="http://creativecommons.org/ns#"
   xmlns:rdf="http://www.w3.org/1999/02/22-rdf-syntax-ns#"
   xmlns:svg="http://www.w3.org/2000/svg"
   xmlns="http://www.w3.org/2000/svg"
   xmlns:xlink="http://www.w3.org/1999/xlink"
   xmlns:sodipodi="http://sodipodi.sourceforge.net/DTD/sodipodi-0.dtd"
   xmlns:inkscape="http://www.inkscape.org/namespaces/inkscape"
   viewBox="0 0 16 16"
   version="1.1"
   id="svg10"
   sodipodi:docname="sc_thesaurus.svg"
   inkscape:export-filename="/home/rizmut/Dokumen/Rizmut/Github/libreoffice-style-sukapura/images_sukapura/cmd/sc_thesaurus.png"
   inkscape:export-xdpi="96"
   inkscape:export-ydpi="96"
   inkscape:version="0.92.3 (unknown)">
  <metadata
     id="metadata16">
    <rdf:RDF>
      <cc:Work
         rdf:about="">
        <dc:format>image/svg+xml</dc:format>
        <dc:type
           rdf:resource="http://purl.org/dc/dcmitype/StillImage" />
      </cc:Work>
    </rdf:RDF>
  </metadata>
  <defs
     id="defs14">
    <linearGradient
       gradientTransform="translate(-26.983051,-6.9830508)"
       id="a"
       gradientUnits="userSpaceOnUse"
       x1="14"
       x2="13.79661"
       y1="22"
       y2="2.1355929">
      <stop
         offset="0"
         stop-color="#0040dd"
         id="stop2" />
      <stop
         offset="1"
         stop-color="#0a84ff"
         id="stop4" />
    </linearGradient>
    <linearGradient
       inkscape:collect="always"
       xlink:href="#a"
       id="linearGradient880"
       x1="7"
       y1="16"
       x2="7"
       y2="1"
       gradientUnits="userSpaceOnUse" />
  </defs>
  <sodipodi:namedview
     pagecolor="#ffffff"
     bordercolor="#666666"
     borderopacity="1"
     objecttolerance="10"
     gridtolerance="10"
     guidetolerance="10"
     inkscape:pageopacity="0"
     inkscape:pageshadow="2"
     inkscape:window-width="1366"
     inkscape:window-height="706"
     id="namedview12"
     showgrid="true"
     inkscape:zoom="7.375"
     inkscape:cx="36.789311"
     inkscape:cy="-2.241863"
     inkscape:window-x="0"
     inkscape:window-y="0"
     inkscape:window-maximized="1"
     inkscape:current-layer="svg10">
    <inkscape:grid
       type="xygrid"
       id="grid823" />
  </sodipodi:namedview>
  <g
     id="g936">
    <rect
       y="1"
       x="0"
       height="15"
       width="16"
       id="rect872"
       style="fill:url(#linearGradient880);fill-opacity:1;stroke:none;stroke-opacity:1" />
    <path
       style="fill:#69696e;fill-opacity:1;stroke:none"
       sodipodi:nodetypes="ccccccccccccccc"
       inkscape:connector-curvature="0"
       id="path2"
       d="M 1,0 V 15 H 8 C 6.3171014,14.129258 5.3025735,13.920307 4.0957031,13.904297 L 2,14 V 1 C 7,1 7,2 8,3 9,2 9,1 14,1 V 14 L 11.226562,13.884766 C 10.243804,13.941555 9.286517,14.197516 8,15 h 7 V 0 C 12,0 12,0 8,2 5,0 5,0 1,0 Z" />
    <path
       d="M 8,15 C 6.3171014,14.129258 5.3025735,13.920307 4.0957031,13.904297 L 2,14 V 1 C 7,1 7,2 8,3 9,2 9,1 14,1 V 14 L 11.226562,13.884766 C 10.243804,13.941555 9.286517,14.197516 8,15 Z"
       id="path882"
       inkscape:connector-curvature="0"
       sodipodi:nodetypes="cccccccccc"
       style="fill:#ffffff;fill-opacity:1;stroke:none" />
    <rect
       y="3"
       x="9"
       height="1"
       width="4"
       id="rect884"
       style="fill:#ff4035;fill-opacity:1;stroke:none;stroke-opacity:1" />
    <rect
       style="fill:#af52de;fill-opacity:1;stroke:none;stroke-opacity:1"
       id="rect886"
       width="4"
       height="1"
       x="9"
       y="5" />
    <rect
       y="7"
       x="9"
       height="1"
       width="4"
       id="rect888"
       style="fill:#98989d;fill-opacity:1;stroke:none;stroke-opacity:1" />
    <rect
       style="fill:#98989d;fill-opacity:1;stroke:none;stroke-opacity:1"
       id="rect890"
       width="4"
       height="1"
       x="9"
       y="9" />
    <rect
       y="11"
       x="9"
       height="1"
       width="4"
       id="rect892"
       style="fill:#98989d;fill-opacity:1;stroke:none;stroke-opacity:1" />
    <rect
       style="fill:#98989d;fill-opacity:1;stroke:none;stroke-opacity:1"
       id="rect894"
       width="4"
       height="1"
       x="3"
       y="3" />
    <rect
       y="5"
       x="3"
       height="1"
       width="4"
       id="rect896"
       style="fill:#98989d;fill-opacity:1;stroke:none;stroke-opacity:1" />
    <rect
       style="fill:#98989d;fill-opacity:1;stroke:none;stroke-opacity:1"
       id="rect898"
       width="4"
       height="1"
       x="3"
       y="7" />
    <rect
       y="9"
       x="3"
       height="1"
       width="4"
       id="rect900"
       style="fill:#98989d;fill-opacity:1;stroke:none;stroke-opacity:1" />
    <rect
       style="fill:#98989d;fill-opacity:1;stroke:none;stroke-opacity:1"
       id="rect902"
       width="4"
       height="1"
       x="3"
       y="11" />
  </g>
</svg>
